icons/Globe1_filled.svg

<svg width="24" height="24" viewBox="0 0 24 24" fill="none" xmlns="http://www.w3.org/2000/svg">
<path fill-rule="evenodd" clip-rule="evenodd" d="M2.25,12c0,-5.38478 4.36522,-9.75 9.75,-9.75c5.3848,0 9.75,4.36522 9.75,9.75c0,5.3848 -4.3652,9.75 -9.75,9.75c-5.38478,0 -9.75,-4.3652 -9.75,-9.75zM3.93598,10.25h1.06402c1.79493,0 3.25,1.4551 3.25,3.25v0.75c0,0.5523 0.44772,1 1,1c1.3807,0 2.5,1.1193 2.5,2.5v2.4963c0.083,0.0025 0.1664,0.0037 0.25,0.0037c0.78,0 1.5348,-0.1083 2.25,-0.3105v-0.9395c0,-2.6234 2.1266,-4.75 4.75,-4.75h0.9395c0.2022,-0.7152 0.3105,-1.47 0.3105,-2.25c0,-0.78 -0.1082,-1.5348 -0.3105,-2.25h-2.9395c-0.4142,0 -0.75,0.3358 -0.75,0.75c0,1.2426 -1.0074,2.25 -2.25,2.25h-0.25c-1.3807,0 -2.5,-1.1193 -2.5,-2.5v-0.25c0,-0.69036 -0.5596,-1.25 -1.25,-1.25h-0.5c-1.61071,0 -2.94774,-1.17172 -3.20522,-2.70929c-1.16629,1.11687 -2.00532,2.57273 -2.3588,4.20929z" fill="#002B51"/>
</svg>

<svg width="24" height="24" viewBox="0 0 24 24" fill="none" xmlns="http://www.w3.org/2000/svg">
<path fill-rule="evenodd" clip-rule="evenodd" d="M2.25 12C2.25 6.61522 6.61522 2.25 12 2.25C17.3848 2.25 21.75 6.61522 21.75 12C21.75 17.3848 17.3848 21.75 12 21.75C6.61522 21.75 2.25 17.3848 2.25 12ZM3.93598 10.25H5C6.79493 10.25 8.25 11.7051 8.25 13.5V14.25C8.25 14.8023 8.69772 15.25 9.25 15.25C10.6307 15.25 11.75 16.3693 11.75 17.75V20.2463C11.833 20.2488 11.9164 20.25 12 20.25C12.78 20.25 13.5348 20.1417 14.25 19.9395V19C14.25 16.3766 16.3766 14.25 19 14.25H19.9395C20.1417 13.5348 20.25 12.78 20.25 12C20.25 11.22 20.1418 10.4652 19.9395 9.75H17C16.5858 9.75 16.25 10.0858 16.25 10.5C16.25 11.7426 15.2426 12.75 14 12.75H13.75C12.3693 12.75 11.25 11.6307 11.25 10.25V10C11.25 9.30964 10.6904 8.75 10 8.75H9.5C7.88929 8.75 6.55226 7.57828 6.29478 6.04071C5.12849 7.15758 4.28946 8.61344 3.93598 10.25Z" fill="#002B51"/>
</svg>
